X: 49
T: No_145_Into_the_Several_Heavens.krn
%%abc-version 2.0
%%abcx-abcm2ps-target-version 5.9.1 (29 Sep 2008)
%%abc-creator hum2abc beta
%%abcx-conversion-date 2020/08/10 18:54:56
%%gracespace 0 6 6
%%humdrum-veritas 3860642486
%%humdrum-veritas-data 382967205
%%linebreak <none>
%%barnumbers 0
L: 1/8
M: 3/4
%%staves {1 2}
V: 1 clef=bass
V: 2 clef=bass
K: Eb
[V:1] [K:clef=bass][M:3/4]C2C2B,2 | 
[V:2] [K:clef=bass][M:3/4](3!accent!G,, z G,, (3!accent!G,, z G,, (3!accent!G,, z G,, | 
[V:1] B,4G,2 | 
[V:2] z6 | 
[V:1] B,2B,<G, E,3/E,/ | 
[V:2] z6 | 
[V:1] E,6 | 
[V:2] z6 | 
[V:1] E,2G,2E,3/E,/ | 
[V:2] z6 | 
[V:1] E,4C,2 | 
[V:2] z6 | 
[V:1] E,2E,<C, B,,3/B,,/ | 
[V:2] z6 | 
[V:1] B,,6 | 
[V:2] z6 | 
[V:1] B,,2C,2B,,3/B,,/ | 
[V:2] z6 | 
[V:1] B,,4G,,2 | 
[V:2] z6 | 
[V:1] B,,>C,B,,2G,,2 | 
[V:2] z6 | 
[V:1] E,,>E,,E,,4 ||  
[V:2] z6 ||  
[V:1] [M:2/4](3E,E,E, G,3/G,/ ||  
[V:2] [M:2/4]z4 ||  
[V:1] [M:3/4]E,4C,3/C,/ | 
[V:2] [M:3/4]z6 | 
[V:1] E,2E,>C,B,,2 | 
[V:2] z6 | 
[V:1] B,,6 | 
[V:2] z6 | 
[V:1] B,,B,,C,2B,,3/B,,/ | 
[V:2] z6 | 
[V:1] B,,4G,,2 | 
[V:2] z6 | 
[V:1] B,,>C,B,,2G,,2 | 
[V:2] z6 | 
[V:1] E,,>E,,E,,4 |]  
[V:2] z6 |]  


